humanity-icon-theme/Humanity/actions/48/help-contents.svg

<?xml version="1.0" encoding="UTF-8" standalone="no"?>
<!-- Created with Inkscape (http://www.inkscape.org/) -->
<svg
   xmlns:dc="http://purl.org/dc/elements/1.1/"
   xmlns:cc="http://creativecommons.org/ns#"
   xmlns:rdf="http://www.w3.org/1999/02/22-rdf-syntax-ns#"
   xmlns:svg="http://www.w3.org/2000/svg"
   xmlns="http://www.w3.org/2000/svg"
   xmlns:xlink="http://www.w3.org/1999/xlink"
   xmlns:sodipodi="http://sodipodi.sourceforge.net/DTD/sodipodi-0.dtd"
   xmlns:inkscape="http://www.inkscape.org/namespaces/inkscape"
   version="1.0"
   width="48"
   height="48"
   id="svg3675"
   sodipodi:version="0.32"
   inkscape:version="0.46"
   sodipodi:docname="help-contents.svg"
   inkscape:output_extension="org.inkscape.output.svg.inkscape">
  <metadata
     id="metadata29">
    <rdf:RDF>
      <cc:Work
         rdf:about="">
        <dc:format>image/svg+xml</dc:format>
        <dc:type
           rdf:resource="http://purl.org/dc/dcmitype/StillImage" />
      </cc:Work>
    </rdf:RDF>
  </metadata>
  <sodipodi:namedview
     inkscape:window-height="794"
     inkscape:window-width="1440"
     inkscape:pageshadow="2"
     inkscape:pageopacity="0.0"
     guidetolerance="10.0"
     gridtolerance="10.0"
     objecttolerance="10.0"
     borderopacity="1.0"
     bordercolor="#666666"
     pagecolor="#ffffff"
     id="base"
     showgrid="false"
     inkscape:zoom="9.7083333"
     inkscape:cx="5.7167382"
     inkscape:cy="24"
     inkscape:window-x="0"
     inkscape:window-y="24"
     inkscape:current-layer="svg3675" />
  <defs
     id="defs3677">
    <linearGradient
       id="linearGradient8838">
      <stop
         id="stop8840"
         style="stop-color:#000000;stop-opacity:1"
         offset="0" />
      <stop
         id="stop8842"
         style="stop-color:#000000;stop-opacity:0"
         offset="1" />
    </linearGradient>
    <linearGradient
       id="linearGradient2490-182-124">
      <stop
         id="stop2788"
         style="stop-color:#1f4b6a;stop-opacity:1;"
         offset="0" />
      <stop
         id="stop2790"
         style="stop-color:#4083c2;stop-opacity:1"
         offset="1" />
    </linearGradient>
    <linearGradient
       id="linearGradient3242-187-536">
      <stop
         id="stop2778"
         style="stop-color:#8badea;stop-opacity:1"
         offset="0" />
      <stop
         id="stop2780"
         style="stop-color:#6396cd;stop-opacity:1"
         offset="0.26238" />
      <stop
         id="stop2782"
         style="stop-color:#3b7caf;stop-opacity:1"
         offset="0.66093999" />
      <stop
         id="stop2784"
         style="stop-color:#194c70;stop-opacity:1;"
         offset="1" />
    </linearGradient>
    <linearGradient
       id="linearGradient4873">
      <stop
         id="stop4875"
         style="stop-color:#ffffff;stop-opacity:1"
         offset="0" />
      <stop
         id="stop4877"
         style="stop-color:#ffffff;stop-opacity:0"
         offset="1" />
    </linearGradient>
    <linearGradient
       inkscape:collect="always"
       xlink:href="#linearGradient4873"
       id="linearGradient2407"
       gradientUnits="userSpaceOnUse"
       gradientTransform="matrix(2.1153735,0,0,2.1153253,-107.57709,32.426559)"
       x1="63.397362"
       y1="-12.489107"
       x2="63.397362"
       y2="5.4675598" />
    <radialGradient
       inkscape:collect="always"
       xlink:href="#linearGradient3242-187-536"
       id="radialGradient2410"
       gradientUnits="userSpaceOnUse"
       gradientTransform="matrix(0,2.2874593,-3.0194057,0,36.047437,-50.630156)"
       cx="23.895569"
       cy="3.9900031"
       fx="23.895569"
       fy="3.9900031"
       r="20.397499" />
    <linearGradient
       inkscape:collect="always"
       xlink:href="#linearGradient2490-182-124"
       id="linearGradient2412"
       gradientUnits="userSpaceOnUse"
       gradientTransform="matrix(0.9584364,0,0,0.9584366,0.9975246,1.9975253)"
       x1="18.379412"
       y1="44.980297"
       x2="18.379412"
       y2="3.0816143" />
    <radialGradient
       inkscape:collect="always"
       xlink:href="#linearGradient8838"
       id="radialGradient2415"
       gradientUnits="userSpaceOnUse"
       gradientTransform="matrix(2.1647059,0,0,0.7529402,-111.56471,36.517647)"
       cx="62.625"
       cy="4.625"
       fx="62.625"
       fy="4.625"
       r="10.625" />
  </defs>
  <path
     style="opacity:0.3;fill:url(#radialGradient2415);fill-opacity:1;fill-rule:evenodd;stroke:none;stroke-width:0.99999988;stroke-linecap:butt;stroke-linejoin:round;marker:none;marker-start:none;marker-mid:none;marker-end:none;stroke-miterlimit:4;stroke-dasharray:none;stroke-dashoffset:0;stroke-opacity:1;visibility:visible;display:inline;overflow:visible"
     id="path8836"
     d="M 46.999997,40 C 46.999997,44.418278 36.702545,48 23.999997,48 C 11.297449,48 0.9999968,44.418278 0.9999968,40 C 0.9999968,35.581722 11.297449,32 23.999997,32 C 36.702545,32 46.999997,35.581722 46.999997,40 L 46.999997,40 z" />
  <path
     style="fill:url(#radialGradient2410);fill-opacity:1;stroke:url(#linearGradient2412);stroke-width:1.003654;stroke-linecap:round;stroke-linejoin:round;stroke-miterlimit:4;stroke-dasharray:none;stroke-dashoffset:0;stroke-opacity:1"
     id="path2555"
     d="M 24.000002,5.5018088 C 13.241573,5.5018088 4.5018088,14.24157 4.5018088,25 C 4.5018088,35.75843 13.241573,44.498195 24.000002,44.498192 C 34.758427,44.498192 43.498201,35.75843 43.498191,25 C 43.498191,14.24157 34.758427,5.5018088 24.000002,5.5018088 z" />
  <path
     style="opacity:0.4;fill:none;fill-opacity:1;fill-rule:nonzero;stroke:url(#linearGradient2407);stroke-width:1;stroke-miterlimit:4;stroke-dasharray:none;stroke-opacity:1"
     id="path8655"
     d="M 42.500002,24.999344 C 42.500002,35.216942 34.21666,43.5 24.000235,43.5 C 13.782875,43.5 5.5000003,35.216848 5.5000003,24.999344 C 5.5000003,14.782219 13.782875,6.5000001 24.000235,6.5000001 C 34.21666,6.5000001 42.500002,14.782219 42.500002,24.999344 L 42.500002,24.999344 z" />
  <path
     style="font-size:72px;font-style:normal;font-weight:bold;opacity:0.2;fill:#000000;fill-opacity:1;stroke:none;stroke-width:0.75;stroke-linecap:round;stroke-linejoin:round;stroke-miterlimit:4;stroke-dasharray:none;stroke-opacity:1;font-family:Standard Symbols L"
     id="path9053"
     d="M 24.910438,30.163548 C 24.844359,27.804786 25.372812,25.514931 27.601307,23.89294 C 29.955167,22.058572 32.222122,19.763528 31.982553,17.05819 C 31.930242,14.449135 28.890312,12.404657 25.615007,12.110697 C 21.930821,11.600311 17.472979,12.862433 16.238433,15.739639 C 15.612299,17.139014 16.192931,19.649656 18.294228,19.649656 C 19.52328,19.649656 20.08779,18.855722 20.18053,18.129458 C 20.250698,17.579944 20.025096,17.089234 19.891864,16.635331 C 19.740054,16.118139 20.388118,15.115765 21.093948,14.70736 C 21.68375,14.366086 22.300834,14.251652 22.391795,14.229791 C 24.50994,13.720746 26.621425,14.845157 27.502374,16.213704 C 28.383324,17.58225 27.413666,19.658069 26.019519,21.676723 C 24.625372,23.695377 23.129204,25.988156 23.135181,28.423463 C 23.135181,29.350586 23.052575,29.665551 23.111269,30.040642 C 23.158164,30.340329 24.150495,30.304113 24.910438,30.163548 z M 23.943783,33.338315 C 21.918502,33.22837 20.516726,35.524313 21.733415,36.987141 C 22.819976,38.602248 25.866441,38.203546 26.388604,36.374599 C 26.931465,34.952358 25.625062,33.314574 23.943784,33.338314 L 23.943783,33.338315 z" />
  <path
     style="font-size:72px;font-style:normal;font-weight:bold;fill:#ffffff;fill-opacity:1;stroke:none;stroke-width:0.75;stroke-linecap:round;stroke-linejoin:round;stroke-miterlimit:4;stroke-dasharray:none;stroke-opacity:1;font-family:Standard Symbols L"
     id="path3298"
     d="M 24.910438,31.163548 C 24.844359,28.804786 25.372812,26.514931 27.601307,24.89294 C 29.955167,23.058572 32.222122,20.763528 31.982553,18.05819 C 31.930242,15.449135 28.890312,13.404657 25.615007,13.110697 C 21.930821,12.600311 17.472979,13.862433 16.238433,16.739639 C 15.612299,18.139014 16.192931,20.649656 18.294228,20.649656 C 19.52328,20.649656 20.08779,19.855722 20.18053,19.129458 C 20.250698,18.579944 20.025096,18.089234 19.891864,17.635331 C 19.740054,17.118139 20.388118,16.115765 21.093948,15.70736 C 21.68375,15.366086 22.300834,15.251652 22.391795,15.229791 C 24.50994,14.720746 26.621425,15.845157 27.502374,17.213704 C 28.383324,18.58225 27.413666,20.658069 26.019519,22.676723 C 24.625372,24.695377 23.129204,26.988156 23.135181,29.423463 C 23.135181,30.350586 23.052575,30.665551 23.111269,31.040642 C 23.158164,31.340329 24.150495,31.304113 24.910438,31.163548 z M 23.943783,34.338315 C 21.918502,34.22837 20.516726,36.524313 21.733415,37.987141 C 22.819976,39.602248 25.866441,39.203546 26.388604,37.374599 C 26.931465,35.952358 25.625062,34.314574 23.943784,34.338314 L 23.943783,34.338315 z" />
</svg>

<?xml version="1.0" encoding="UTF-8" standalone="no"?>
<!-- Created with Inkscape (http://www.inkscape.org/) -->
<svg id="svg3675" xmlns:rdf="http://www.w3.org/1999/02/22-rdf-syntax-ns#" xmlns="http://www.w3.org/2000/svg" height="48" width="48" version="1.0" xmlns:cc="http://creativecommons.org/ns#" xmlns:xlink="http://www.w3.org/1999/xlink" xmlns:dc="http://purl.org/dc/elements/1.1/">
 <metadata id="metadata29">
  <rdf:RDF>
   <cc:Work rdf:about="">
    <dc:format>image/svg+xml</dc:format>
    <dc:type rdf:resource="http://purl.org/dc/dcmitype/StillImage"/>
   </cc:Work>
  </rdf:RDF>
 </metadata>
 <defs id="defs3677">
  <linearGradient id="linearGradient2407" y2="5.4676" gradientUnits="userSpaceOnUse" x2="63.397" gradientTransform="matrix(2.1154 0 0 2.1153 -107.58 32.427)" y1="-12.489" x1="63.397">
   <stop id="stop4875" style="stop-color:#fff" offset="0"/>
   <stop id="stop4877" style="stop-color:#fff;stop-opacity:0" offset="1"/>
  </linearGradient>
  <radialGradient id="radialGradient2410" gradientUnits="userSpaceOnUse" cy="3.99" cx="23.896" gradientTransform="matrix(0 2.2875 -3.0194 0 36.047 -50.63)" r="20.397">
   <stop id="stop2778" style="stop-color:#8badea" offset="0"/>
   <stop id="stop2780" style="stop-color:#6396cd" offset=".26238"/>
   <stop id="stop2782" style="stop-color:#3b7caf" offset=".66094"/>
   <stop id="stop2784" style="stop-color:#194c70" offset="1"/>
  </radialGradient>
  <linearGradient id="linearGradient2412" y2="3.0816" gradientUnits="userSpaceOnUse" x2="18.379" gradientTransform="matrix(.95844 0 0 .95844 .99752 1.9975)" y1="44.98" x1="18.379">
   <stop id="stop2788" style="stop-color:#1f4b6a" offset="0"/>
   <stop id="stop2790" style="stop-color:#4083c2" offset="1"/>
  </linearGradient>
  <radialGradient id="radialGradient2415" gradientUnits="userSpaceOnUse" cy="4.625" cx="62.625" gradientTransform="matrix(2.1647 0 0 .75294 -111.56 36.518)" r="10.625">
   <stop id="stop8840" offset="0"/>
   <stop id="stop8842" style="stop-opacity:0" offset="1"/>
  </radialGradient>
 </defs>
 <path id="path8836" style="opacity:.3;fill-rule:evenodd;fill:url(#radialGradient2415)" d="m47 40c0 4.418-10.297 8-23 8s-23-3.582-23-8 10.297-8 23-8 23 3.582 23 8z"/>
 <path id="path2555" style="stroke-linejoin:round;stroke:url(#linearGradient2412);stroke-linecap:round;stroke-width:1.0037;fill:url(#radialGradient2410)" d="m24 5.5018c-10.758 0-19.498 8.7402-19.498 19.498-0.0002 10.758 8.74 19.498 19.498 19.498s19.498-8.74 19.498-19.498-8.74-19.498-19.498-19.498z"/>
 <path id="path8655" style="opacity:.4;stroke:url(#linearGradient2407);fill:none" d="m42.5 24.999c0 10.218-8.283 18.501-18.5 18.501s-18.5-8.283-18.5-18.501c0-10.217 8.283-18.499 18.5-18.499s18.5 8.282 18.5 18.499z"/>
 <path id="path9053" style="opacity:.2" d="m24.91 30.164c-0.066-2.359 0.463-4.649 2.691-6.271 2.354-1.834 4.621-4.129 4.382-6.835-0.053-2.609-3.093-4.653-6.368-4.947-3.684-0.511-8.142 0.751-9.377 3.629-0.626 1.399-0.045 3.91 2.056 3.91 1.229 0 1.794-0.794 1.887-1.521 0.07-0.549-0.156-1.04-0.289-1.494-0.152-0.517 0.496-1.519 1.202-1.928 0.59-0.341 1.207-0.455 1.298-0.477 2.118-0.509 4.229 0.615 5.11 1.984 0.881 1.368-0.088 3.444-1.482 5.463-1.395 2.018-2.891 4.311-2.885 6.746 0 0.928-0.082 1.243-0.024 1.618 0.047 0.299 1.039 0.263 1.799 0.123zm-0.966 3.174c-2.025-0.11-3.427 2.186-2.211 3.649 1.087 1.615 4.133 1.217 4.656-0.612 0.542-1.423-0.764-3.06-2.445-3.037z"/>
 <path id="path3298" style="fill:#fff" d="m24.91 31.164c-0.066-2.359 0.463-4.649 2.691-6.271 2.354-1.834 4.621-4.129 4.382-6.835-0.053-2.609-3.093-4.653-6.368-4.947-3.684-0.511-8.142 0.751-9.377 3.629-0.626 1.399-0.045 3.91 2.056 3.91 1.229 0 1.794-0.794 1.887-1.521 0.07-0.549-0.156-1.04-0.289-1.494-0.152-0.517 0.496-1.519 1.202-1.928 0.59-0.341 1.207-0.455 1.298-0.477 2.118-0.509 4.229 0.615 5.11 1.984 0.881 1.368-0.088 3.444-1.482 5.463-1.395 2.018-2.891 4.311-2.885 6.746 0 0.928-0.082 1.243-0.024 1.618 0.047 0.299 1.039 0.263 1.799 0.123zm-0.966 3.174c-2.025-0.11-3.427 2.186-2.211 3.649 1.087 1.615 4.133 1.217 4.656-0.612 0.542-1.423-0.764-3.06-2.445-3.037z"/>
</svg>
